X: 33252
T: Pullet, The
R: reel
M: 4/4
K: Dmajor
d2 ce dBAF|D2 FD ADFD|d2 ce dBAF|DEFA BE E2|
d2 ce dBAF|D2 FD ADFA|fedf edcB|1 ABFA BE E2:|2 ABFA BEEF||
G2 GF GBdB|A2 FA DAFA|G2 GF GBdB|ADFA BEEF|
G2 GF GBdB|A2 FA DAFA|fedf edcB|1 ABFA BEEF:|2 ABFA BE E2||

